svg/file/profile_line.svg

<?xml version="1.0" encoding="UTF-8"?>
<svg width="24px" height="24px" viewBox="0 0 24 24" version="1.1" xmlns="http://www.w3.org/2000/svg" xmlns:xlink="http://www.w3.org/1999/xlink">
    <title>profile_line</title>
    <g id="页面-1" stroke="none" stroke-width="1" fill="none" fill-rule="evenodd">
        <g id="File" transform="translate(0.000000, -288.000000)">
            <g id="profile_line" transform="translate(0.000000, 288.000000)">
                 <path d="M24,0 L24,24 L0,24 L0,0 L24,0 Z M12.5934901,23.257841 L12.5819402,23.2595131 L12.5108777,23.2950439 L12.4918791,23.2987469 L12.4918791,23.2987469 L12.4767152,23.2950439 L12.4056548,23.2595131 C12.3958229,23.2563662 12.3870493,23.2590235 12.3821421,23.2649074 L12.3780323,23.275831 L12.360941,23.7031097 L12.3658947,23.7234994 L12.3769048,23.7357139 L12.4804777,23.8096931 L12.4953491,23.8136134 L12.4953491,23.8136134 L12.5071152,23.8096931 L12.6106902,23.7357139 L12.6232938,23.7196733 L12.6232938,23.7196733 L12.6266527,23.7031097 L12.609561,23.275831 C12.6075724,23.2657013 12.6010112,23.2592993 12.5934901,23.257841 L12.5934901,23.257841 Z M12.8583906,23.1452862 L12.8445485,23.1473072 L12.6598443,23.2396597 L12.6498822,23.2499052 L12.6498822,23.2499052 L12.6471943,23.2611114 L12.6650943,23.6906389 L12.6699349,23.7034178 L12.6699349,23.7034178 L12.678386,23.7104931 L12.8793402,23.8032389 C12.8914285,23.8068999 12.9022333,23.8029875 12.9078286,23.7952264 L12.9118235,23.7811639 L12.8776777,23.1665331 C12.8752882,23.1545897 12.8674102,23.1470016 12.8583906,23.1452862 L12.8583906,23.1452862 Z M12.1430473,23.1473072 C12.1332178,23.1423925 12.1221763,23.1452606 12.1156365,23.1525954 L12.1099173,23.1665331 L12.0757714,23.7811639 C12.0751323,23.7926639 12.0828099,23.8018602 12.0926481,23.8045676 L12.108256,23.8032389 L12.3092106,23.7104931 L12.3186497,23.7024347 L12.3186497,23.7024347 L12.3225043,23.6906389 L12.340401,23.2611114 L12.337245,23.2485176 L12.337245,23.2485176 L12.3277531,23.2396597 L12.1430473,23.1473072 Z" id="MingCute" fill-rule="nonzero"></path>
                <path d="M20,3 C21.1046,3 22,3.89543 22,5 L22,19 C22,20.1046 21.1046,21 20,21 L4,21 C2.89543,21 2,20.1046 2,19 L2,5 C2,3.89543 2.89543,3 4,3 L20,3 Z M20,5 L4,5 L4,19 L20,19 L20,5 Z M17,15 C17.5523,15 18,15.4477 18,16 C18,16.51285 17.613973,16.9355092 17.1166239,16.9932725 L17,17 L7,17 C6.44772,17 6,16.5523 6,16 C6,15.48715 6.38604429,15.0644908 6.88337975,15.0067275 L7,15 L17,15 Z M10,7 C11.1046,7 12,7.89543 12,9 L12,11 C12,12.1046 11.1046,13 10,13 L8,13 C6.89543,13 6,12.1046 6,11 L6,9 C6,7.89543 6.89543,7 8,7 L10,7 Z M17,11 C17.5523,11 18,11.4477 18,12 C18,12.5523 17.5523,13 17,13 L14,13 C13.4477,13 13,12.5523 13,12 C13,11.4477 13.4477,11 14,11 L17,11 Z M10,9 L8,9 L8,11 L10,11 L10,9 Z M17,7 C17.5523,7 18,7.44772 18,8 C18,8.51283143 17.613973,8.93550653 17.1166239,8.9932722 L17,9 L14,9 C13.4477,9 13,8.55228 13,8 C13,7.48716857 13.386027,7.06449347 13.8833761,7.0067278 L14,7 L17,7 Z" id="形状" fill="#09244B"></path>
            </g>
        </g>
    </g>
</svg>

<svg xmlns="http://www.w3.org/2000/svg" width="24" height="24"><g fill="none" fill-rule="evenodd"><path d="M24 0v24H0V0h24ZM12.593 23.258l-.011.002-.071.035-.02.004-.014-.004-.071-.035c-.01-.004-.019-.001-.024.005l-.004.01-.017.428.005.02.01.013.104.074.015.004.012-.004.104-.074.012-.016.004-.017-.017-.427c-.002-.01-.009-.017-.017-.018Zm.265-.113-.013.002-.185.093-.01.01-.003.011.018.43.005.012.008.007.201.093c.012.004.023 0 .029-.008l.004-.014-.034-.614c-.003-.012-.01-.02-.02-.022Zm-.715.002a.023.023 0 0 0-.027.006l-.006.014-.034.614c0 .012.007.02.017.024l.015-.002.201-.093.01-.008.004-.011.017-.43-.003-.012-.01-.01-.184-.092Z"/><path fill="#09244B" d="M20 3a2 2 0 0 1 2 2v14a2 2 0 0 1-2 2H4a2 2 0 0 1-2-2V5a2 2 0 0 1 2-2h16Zm0 2H4v14h16V5Zm-3 10a1 1 0 0 1 .117 1.993L17 17H7a1 1 0 0 1-.117-1.993L7 15h10Zm-7-8a2 2 0 0 1 2 2v2a2 2 0 0 1-2 2H8a2 2 0 0 1-2-2V9a2 2 0 0 1 2-2h2Zm7 4a1 1 0 1 1 0 2h-3a1 1 0 1 1 0-2h3Zm-7-2H8v2h2V9Zm7-2a1 1 0 0 1 .117 1.993L17 9h-3a1 1 0 0 1-.117-1.993L14 7h3Z"/></g></svg>
